X: 2
T:Missa Ave maris stella / Gloria
N: Derived from Jos0301b-Missa_Ave_maris_stella-Gloria.krn
C: Josquin des Prez
%%abc-version 2.0
%%abcx-abcm2ps-target-version 5.9.1 (29 Sep 2008)
%%abc-creator hum2abc beta
%%abcx-conversion-date 2019/02/12 16:15:38
%%abc-edited-by Jesse Rodin
%%abc-edited-by Jesse Rodin; Victoria Chang 2011/04/01/
%%abcx-initial-encoding-date 2011/04/01/
%%humdrum-veritas 4025654022
%%humdrum-veritas-data 1210037738
%%linebreak <none>
%%barnumbers 0
L: 1/4
M: 3/1
Q: 1/2=120
%%staves [1 2 3 4]
V: 1 clef=treble
V: 2 clef=treble-8
V: 3 clef=treble-8
V: 4 clef=bass
K: F
[V:1] z12 | 
[V:2] G4d4d4 | 
[V:3] z12 | 
[V:4] z12 | 
[V:1] G4d4d4 | 
[V:2] e4d2f4ed | 
[V:3] z12 | 
[V:4] z12 | 
[V:1] e4d2f4ed | 
[V:2] c2A2B2A2B4 | 
[V:3] z12 | 
[V:4] z12 | 
[V:1] c2A2B2A2B4 | 
[V:2] A4z2d4B2 | 
[V:3] z12 | 
[V:4] z12 | 
[V:1] A4z2d4B2 | 
[V:2] c2d2B3GG2d2 | 
[V:3] z12 | 
[V:4] z12 | 
[V:1] c2d2B3GG2d2 | 
[V:2] e2f2g8 | 
[V:3] z12 | 
[V:4] z12 | 
[V:1] e2f2g4z2d2 | 
[V:2] z2d2e2g2f3e | 
[V:3] z12 | 
[V:4] z12 | 
[V:1] e2g2f3ec2B2 | 
[V:2] c2B2d3cA2G2 | 
[V:3] z12 | 
[V:4] z12 | 
[V:1] d3cA2G2z2G2 | 
[V:2] z2G2A2B2c3B | 
[V:3] z12 | 
[V:4] z12 | 
[V:1] A2B2c3BA2G2 | 
[V:2] A2G2z2c2d2e2 | 
[V:3] z12 | 
[V:4] z12 | 
[V:1] z2c2d2e2f3e | 
[V:2] f3ed2c2d2f2 | 
[V:3] z12 | 
[V:4] z12 | 
[V:1] dcd3cB2A2GA | 
[V:2] g2b3ag2f2g2- | 
[V:3] z12 | 
[V:4] z12 | 
[V:1] Bcd4B2A4 | 
[V:2] g2def2g4^f2 | 
[V:3] G4d4d4 | 
[V:4] z12 | 
[V:1] z2G2c4B4 | 
[V:2] g2c3BA2G4 | 
[V:3] e6c2d2e2 | 
[V:4] z12 | 
[V:1] A8z4 | 
[V:2] F4c6Bc | 
[V:3] f2d2e4f4 | 
[V:4] D,4A,4A,4 | 
[V:1] z12 | 
[V:2] d2B2c2d2e2c2- | 
[V:3] g4f2g3fed | 
[V:4] B,3G,A,2B,2C3B, | 
[V:1] z12 | 
[V:2] cABcA2F2G3A | 
[V:3] f2e4d4^c2 | 
[V:4] A,2G,2F,2D,2E,4 | 
[V:1] z12 | 
[V:2] B2A2B3A/G/B3c | 
[V:3] d4z2d2d2d2 | 
[V:4] D,4G,4z2G,2 | 
[V:1] z12 | 
[V:2] d4z4z4 | 
[V:3] G3AB2c3BB2 | 
[V:4] G,2G,4C,2D,3E, | 
[V:1] z12 | 
[V:2] z12 | 
[V:3] AGB2A2G2A4 | 
[V:4] F,2G,2F,2G,3^F,F,E, | 
[V:1] z2d2d2d2G3A | 
[V:2] d2d2d2G3ABc | 
[V:3] G12 | 
[V:4] G,8z4 | 
[V:1] B2c3BG2A4 | 
[V:2] d2e2f2g4^f2 | 
[V:3] z12 | 
[V:4] z12 | 
[V:1] G8z4 | 
[V:2] g8z4 | 
[V:3] z2B2B2B2B4 | 
[V:4] z2G,2G,2G,2D,2G,2 | 
[V:1] z12 | 
[V:2] z12 | 
[V:3] A2B2c2d3=B^c2 | 
[V:4] F,2G,2A,2D,2E,4 | 
[V:1] z2A2B2G2B4 | 
[V:2] z2f2g3fd2g2 | 
[V:3] d12 | 
[V:4] D,4G,8 | 
[V:1] A2B2c2d3=B^c2 | 
[V:2] f2g2a2d2e4 | 
[V:3] z4z4z4 | 
[V:4] z12 | 
[V:1] d2B3BB2A2B2 | 
[V:2] d4z2g2f2g2 | 
[V:3] d12- | 
[V:4] z2G,2G,2G,2D,2G,2 | 
[V:1] A2B2A2B4AG | 
[V:2] a2d2(3:2:5f4d2B2c3B | 
[V:3] d8G4 | 
[V:4] F,2G,2D,4E,4 | 
[V:1] F2f2f2e2d4 | 
[V:2] d8z2d2 | 
[V:3] A4B8 | 
[V:4] D,8G,4 | 
[V:1] c4B8 | 
[V:2] e2f2g2GABcde | 
[V:3] A4G8 | 
[V:4] z2F,2B,3CD4 | 
[V:1] A8z2A2 | 
[V:2] f2d4cBA4 | 
[V:3] F12 | 
[V:4] D,8F,3E, | 
[V:1] c2G2B4A4 | 
[V:2] z2e2g2d2f4 | 
[V:3] z4z4z2A2 | 
[V:4] C,4z4z4 | 
[V:1] z4z4z2A2 | 
[V:2] e4z4z4 | 
[V:3] c2G2B4A4 | 
[V:4] z2E,2G,2D,2F,3E, | 
[V:1] c2G2B4A4 | 
[V:2] z2e2g2d2f4 | 
[V:3] z4z4z2A2 | 
[V:4] C,4z4z4 | 
[V:1] z4z4z2A2 | 
[V:2] e4z4z4 | 
[V:3] c2G2B4A4 | 
[V:4] z2E,2G,2D,2F,3G, | 
[V:1] c2G2B4A4 | 
[V:2] z2e2g2d2f2cd | 
[V:3] z4z4z2A2 | 
[V:4] A,B,C2G,3F,D,2F,2 | 
[V:1] G3FD2G4^F2 | 
[V:2] efg3G_e2d4- | 
[V:3] c2G2B2c2A4 | 
[V:4] C,D,E,F,G,2C,2D,4 | 
[V:1] G12 ||  
[V:2] d12 ||  
[V:3] G12 ||  
[V:4] G,12 ||  
[V:1] [M:2/1]G8 | 
[V:2] [M:2/1]z8 | 
[V:3] [M:2/1]z8 | 
[V:4] [M:2/1]z8 | 
[V:1] d4d4 | 
[V:2] z8 | 
[V:3] z8 | 
[V:4] z8 | 
[V:1] e4c4 | 
[V:2] z8 | 
[V:3] z8 | 
[V:4] z8 | 
[V:1] d4e4 | 
[V:2] G8 | 
[V:3] z8 | 
[V:4] z8 | 
[V:1] f6ed | 
[V:2] d4d4 | 
[V:3] z8 | 
[V:4] z8 | 
[V:1] cBc4BA | 
[V:2] e4c4 | 
[V:3] z8 | 
[V:4] z8 | 
[V:1] BAB4AG | 
[V:2] d4e4 | 
[V:3] G8 | 
[V:4] z8 | 
[V:1] A8 | 
[V:2] f6ed | 
[V:3] d4d4 | 
[V:4] D,8 | 
[V:1] z8 | 
[V:2] cBc4BA | 
[V:3] e4c4 | 
[V:4] A,4A,4 | 
[V:1] z8 | 
[V:2] G8 | 
[V:3] d4e4 | 
[V:4] B,4G,4 | 
[V:1] z8 | 
[V:2] z8 | 
[V:3] f4d4 | 
[V:4] A,4B,4 | 
[V:1] z8 | 
[V:2] z8 | 
[V:3] e4f4 | 
[V:4] C4A,2B,2- | 
[V:1] z8 | 
[V:2] z8 | 
[V:3] g6fe | 
[V:4] B,2A,G,B,2C2 | 
[V:1] z8 | 
[V:2] z8 | 
[V:3] f2d2f2e2- | 
[V:4] D4D,2E,2 | 
[V:1] z8 | 
[V:2] z8 | 
[V:3] edd4^c2 | 
[V:4] F,2G,2E,4 | 
[V:1] z4D4 | 
[V:2] z8 | 
[V:3] d8- | 
[V:4] D,8- | 
[V:1] A4A4 | 
[V:2] z8 | 
[V:3] d8 | 
[V:4] D,8 | 
[V:1] B4G4 | 
[V:2] G8 | 
[V:3] z8 | 
[V:4] z8 | 
[V:1] A4B4 | 
[V:2] d4d4 | 
[V:3] z8 | 
[V:4] D,8 | 
[V:1] c8 | 
[V:2] e4c4 | 
[V:3] z8 | 
[V:4] A,4A,4 | 
[V:1] z8 | 
[V:2] d6e2 | 
[V:3] G8 | 
[V:4] B,4B,4 | 
[V:1] z8 | 
[V:2] f4g4 | 
[V:3] d4d4 | 
[V:4] B,4B,4 | 
[V:1] z8 | 
[V:2] a4A4- | 
[V:3] e4c4 | 
[V:4] A,6G,F, | 
[V:1] z8 | 
[V:2] A2B4AG | 
[V:3] d4e4 | 
[V:4] F,2G,4F,E, | 
[V:1] z8 | 
[V:2] d4c2f2- | 
[V:3] f8 | 
[V:4] D,3E,F,4 | 
[V:1] d6d2 | 
[V:2] fedcB4 | 
[V:3] z4f4- | 
[V:4] B,,6B,,2 | 
[V:1] d4d4 | 
[V:2] z2B4B2 | 
[V:3] f2f2f2d2 | 
[V:4] B,,4B,4 | 
[V:1] c4c4 | 
[V:2] c4F4 | 
[V:3] e4f4 | 
[V:4] A,4A,4 | 
[V:1] B2G2d3c | 
[V:2] B6d2 | 
[V:3] g3fd2f2- | 
[V:4] G,4B,3A, | 
[V:1] A2G2B2A2 | 
[V:2] c2B2d4 | 
[V:3] f2e2d2f2- | 
[V:4] F,2G,3F,D,E, | 
[V:1] z2A2G2A2 | 
[V:2] c4z2c2 | 
[V:3] f2e2d2f2- | 
[V:4] F,G,A,2B,2A,2 | 
[V:1] D2d4c2 | 
[V:2] d2B2c2A2- | 
[V:3] f2g2e4 | 
[V:4] B,2G,2A,4 | 
[V:1] d2A2f3e | 
[V:2] A2f3ed2- | 
[V:3] d8- | 
[V:4] D,8 | 
[V:1] dcd3cB2 | 
[V:2] dcBAG2d2- | 
[V:3] d8- | 
[V:4] z2B,3A,G,2 | 
[V:1] AGG4^F2 | 
[V:2] d2B2A4 | 
[V:3] d8- | 
[V:4] F,2G,2D,4 | 
[V:1] G8 | 
[V:2] G8 | 
[V:3] d8 | 
[V:4] G,4z2G,2 | 
[V:1] z8 | 
[V:2] z2d2d2f2- | 
[V:3] z8 | 
[V:4] G,2B,4A,G, | 
[V:1] z8 | 
[V:2] f2edc2d2 | 
[V:3] z8 | 
[V:4] F,2G,2A,2B,2 | 
[V:1] z4z2G2 | 
[V:2] e2f2g2e2 | 
[V:3] z8 | 
[V:4] C2A,2G,4- | 
[V:1] B3cdef2- | 
[V:2] d8 | 
[V:3] z2g2g2d2 | 
[V:4] G,4z4 | 
[V:1] fed4^c2 | 
[V:2] z8 | 
[V:3] f3ge4 | 
[V:4] z8 | 
[V:1] d8 | 
[V:2] z4z2d2- | 
[V:3] d8 | 
[V:4] z2G,3G,G,2 | 
[V:1] z8 | 
[V:2] ddd2c2A2 | 
[V:3] z8 | 
[V:4] F,2D,2E,2F,2 | 
[V:1] z4z2d2 | 
[V:2] B2c2d3c | 
[V:3] z2g2f2d2 | 
[V:4] G,3F,D,4 | 
[V:1] c2A2B2c2 | 
[V:2] A4z4 | 
[V:3] e2f2g4 | 
[V:4] z4G,4- | 
[V:1] d4z4 | 
[V:2] d6e2 | 
[V:3] z8 | 
[V:4] G,2A,2B,2G,2 | 
[V:1] z8 | 
[V:2] f2d2e2f2 | 
[V:3] z8 | 
[V:4] A,2B,2C3B, | 
[V:1] z8 | 
[V:2] g3fd2f2- | 
[V:3] z8 | 
[V:4] G,2B,4A,2 | 
[V:1] z8 | 
[V:2] f2e2c2d2- | 
[V:3] z8 | 
[V:4] F,2A,4F,2 | 
[V:1] z8 | 
[V:2] d^c^c=Bd4 | 
[V:3] z4z2d2 | 
[V:4] E,4D,4 | 
[V:1] z4z2d2 | 
[V:2] z2d2e2f2 | 
[V:3] d2B2c2d2 | 
[V:4] z8 | 
[V:1] d2B2c2d2 | 
[V:2] g4f2d2 | 
[V:3] G2G2A2B2 | 
[V:4] z8 | 
[V:1] G2G2A2B2 | 
[V:2] e4d4 | 
[V:3] c4z2G2 | 
[V:4] z8 | 
[V:1] c3BAGB2- | 
[V:2] z8 | 
[V:3] A2c3BG2 | 
[V:4] z8 | 
[V:1] BAG4^F2 | 
[V:2] z8 | 
[V:3] B2c2A4 | 
[V:4] z8 | 
[V:1] G2DEFGA2 | 
[V:2] d6c2 | 
[V:3] G2B4A2 | 
[V:4] z2G,2D,2F,2 | 
[V:1] G2B3AFG | 
[V:2] _e3dB2d2 | 
[V:3] c2B2d3c | 
[V:4] _E,2G,4D,2 | 
[V:1] A3GEFG2- | 
[V:2] c2A2c2B2 | 
[V:3] A2c3BG2 | 
[V:4] F,3E,C,2_E,2 | 
[V:1] GFF4E2 | 
[V:2] d4c4 | 
[V:3] A2B2G4 | 
[V:4] D,2B,,2C,4 | 
[V:1] F4z2A2- | 
[V:2] z2A2d3c | 
[V:3] F8 | 
[V:4] D,8 | 
[V:1] AGABc2G2- | 
[V:2] def2c3B | 
[V:3] z8 | 
[V:4] z8 | 
[V:1] GFGAB2G2 | 
[V:2] cd_e3dg2 | 
[V:3] z8 | 
[V:4] z8 | 
[V:1] A8 | 
[V:2] f3ed2c2 | 
[V:3] z2A3GAB | 
[V:4] D,3C,D,E,F,2 | 
[V:1] z4z2G2- | 
[V:2] _e3dc2B2 | 
[V:3] c2G3FGA | 
[V:4] C,3B,,C,D,_E,2- | 
[V:1] GFGAB3A | 
[V:2] _e3dB2c2 | 
[V:3] B2G3FGA | 
[V:4] E,D,_E,3D,E,F, | 
[V:1] F2G3FB2- | 
[V:2] d2B2_e2d2- | 
[V:3] B2G2B3A | 
[V:4] D,2_E,3D,B,,C, | 
[V:1] BAG4^F2 | 
[V:2] d2c2d4- | 
[V:3] F2G2A4 | 
[V:4] D,2_E,2D,4 | 
[V:1] G8 |]  
[V:2] d8 |]  
[V:3] G8 |]  
[V:4] G,8 |]  



